Papirus-GTK/24x24/apps/bomi.svg

<svg height="24" viewBox="0 0 24.000001 24.000001" width="24" xmlns="http://www.w3.org/2000/svg"><g transform="translate(0 -1028.3622)"><rect fill="#e75177" height="20.000002" rx="1.0000001" transform="matrix(0 -1 -1 0 0 0)" width="20.000002" x="-1050.3622" y="-22.000002"/><path d="m3.0000002 1030.3622c-.5540001 0-1.0000001.446-1.0000001 1v .5c0-.554.446-1 1.0000001-1h18.0000008c.554 0 1 .446 1 1v-.5c0-.554-.446-1-1-1z" fill="#fff" opacity=".2"/><path d="m3.0000002 1050.3622c-.5540001 0-1.0000001-.446-1.0000001-1v-.5c0 .554.446 1 1.0000001 1h18.0000008c.554 0 1-.446 1-1v .5c0 .554-.446 1-1 1z" opacity=".3"/><path d="m12 1034.8621a5.9999997 5.9999997 0 0 0 -1 .086v7.8965c0 .5641-.446 1.0176-1 1.0176-.554 0-1-.4535-1-1.0176v-7.1699a5.9999997 5.9999997 0 0 0 -3 5.1875 5.9999997 5.9999997 0 0 0  6 6 5.9999997 5.9999997 0 0 0  6-6 5.9999997 5.9999997 0 0 0 -6-6zm .232422 3a .2500557.272755 0 0 1  .01953 0 .2500557.272755 0 0 1  .119141.033l4.5 2.7285a.2500557.272755 0 0 1 0 .4766l-4.5 2.7265a.2500557.272755 0 0 1 -.371093-.2361v-5.4551a.2500557.272755 0 0 1  .232422-.2734z" opacity=".2"/><path d="m12 6a5.9999997 5.9999997 0 0 0 -1 .0859375v7.8964845c0 .564102-.446 1.017578-1 1.017578-.554 0-1-.453476-1-1.017578v-7.169922a5.9999997 5.9999997 0 0 0 -3 5.1875 5.9999997 5.9999997 0 0 0  6 6 5.9999997 5.9999997 0 0 0  6-6 5.9999997 5.9999997 0 0 0 -6-6zm .232422 3a .2500557.272755 0 0 1  .019531 0 .2500557.272755 0 0 1  .119141.0332031l4.5 2.7285159a.2500557.272755 0 0 1 0 .476562l-4.5 2.726563a.2500557.272755 0 0 1 -.371094-.236328v-5.4550785a.2500557.272755 0 0 1  .232422-.2734375z" fill="#fff" transform="translate(0 1028.3622)"/></g></svg>

<?xml version="1.0" encoding="UTF-8" standalone="no"?>
<!-- Created with Inkscape (http://www.inkscape.org/) -->

<svg
   xmlns:dc="http://purl.org/dc/elements/1.1/"
   xmlns:cc="http://creativecommons.org/ns#"
   xmlns:rdf="http://www.w3.org/1999/02/22-rdf-syntax-ns#"
   xmlns:svg="http://www.w3.org/2000/svg"
   xmlns="http://www.w3.org/2000/svg"
   xmlns:sodipodi="http://sodipodi.sourceforge.net/DTD/sodipodi-0.dtd"
   xmlns:inkscape="http://www.inkscape.org/namespaces/inkscape"
   width="24"
   height="24"
   viewBox="0 0 24.000001 24.000001"
   id="svg5334"
   version="1.1"
   inkscape:version="0.91 r13725"
   sodipodi:docname="bomi.svg">
  <defs
     id="defs5336" />
  <sodipodi:namedview
     id="base"
     pagecolor="#ffffff"
     bordercolor="#666666"
     borderopacity="1.0"
     inkscape:pageopacity="0.0"
     inkscape:pageshadow="2"
     inkscape:zoom="1"
     inkscape:cx="14.482385"
     inkscape:cy="11.655856"
     inkscape:document-units="px"
     inkscape:current-layer="layer1"
     showgrid="false"
     units="px"
     inkscape:window-width="1600"
     inkscape:window-height="845"
     inkscape:window-x="0"
     inkscape:window-y="32"
     inkscape:window-maximized="1" />
  <metadata
     id="metadata5339">
    <rdf:RDF>
      <cc:Work
         rdf:about="">
        <dc:format>image/svg+xml</dc:format>
        <dc:type
           rdf:resource="http://purl.org/dc/dcmitype/StillImage" />
        <dc:title></dc:title>
      </cc:Work>
    </rdf:RDF>
  </metadata>
  <g
     inkscape:label="Layer 1"
     inkscape:groupmode="layer"
     id="layer1"
     transform="translate(0,-1028.3622)">
    <rect
       style="fill:#e75177"
       x="-1050.3622"
       y="-22.000002"
       width="20.000002"
       height="20.000002"
       ry="1.0000001"
       rx="1.0000001"
       transform="matrix(0,-1,-1,0,0,0)"
       id="rect4203-1" />
    <path
       style="opacity:0.2;fill:#ffffff"
       inkscape:connector-curvature="0"
       d="m 3.0000002,1030.3622 c -0.5540001,0 -1.0000001,0.446 -1.0000001,1 l 0,0.5 c 0,-0.554 0.446,-1 1.0000001,-1 l 18.0000008,0 c 0.554,0 1,0.446 1,1 l 0,-0.5 c 0,-0.554 -0.446,-1 -1,-1 l -18.0000008,0 z"
       id="rect4592" />
    <path
       style="opacity:0.3"
       inkscape:connector-curvature="0"
       d="m 3.0000002,1050.3622 c -0.5540001,0 -1.0000001,-0.446 -1.0000001,-1 l 0,-0.5 c 0,0.554 0.446,1 1.0000001,1 l 18.0000008,0 c 0.554,0 1,-0.446 1,-1 l 0,0.5 c 0,0.554 -0.446,1 -1,1 l -18.0000008,0 z"
       id="path4597" />
    <path
       id="path5927"
       d="m 12,1034.8621 a 5.9999997,5.9999997 0 0 0 -1,0.086 l 0,7.8965 c 0,0.5641 -0.446,1.0176 -1,1.0176 -0.554,0 -1,-0.4535 -1,-1.0176 l 0,-7.1699 a 5.9999997,5.9999997 0 0 0 -3,5.1875 5.9999997,5.9999997 0 0 0 6,6 5.9999997,5.9999997 0 0 0 6,-6 5.9999997,5.9999997 0 0 0 -6,-6 z m 0.232422,3 a 0.2500557,0.272755 0 0 1 0.01953,0 0.2500557,0.272755 0 0 1 0.119141,0.033 l 4.5,2.7285 a 0.2500557,0.272755 0 0 1 0,0.4766 l -4.5,2.7265 A 0.2500557,0.272755 0 0 1 12,1043.5906 l 0,-5.4551 a 0.2500557,0.272755 0 0 1 0.232422,-0.2734 z"
       style="opacity:0.2;fill:#000000;fill-opacity:1"
       inkscape:connector-curvature="0" />
    <path
       style="opacity:1;fill:#ffffff;fill-opacity:1"
       d="M 12 6 A 5.9999997 5.9999997 0 0 0 11 6.0859375 L 11 13.982422 C 11 14.546524 10.554 15 10 15 C 9.446 15 9 14.546524 9 13.982422 L 9 6.8125 A 5.9999997 5.9999997 0 0 0 6 12 A 5.9999997 5.9999997 0 0 0 12 18 A 5.9999997 5.9999997 0 0 0 18 12 A 5.9999997 5.9999997 0 0 0 12 6 z M 12.232422 9 A 0.2500557 0.272755 0 0 1 12.251953 9 A 0.2500557 0.272755 0 0 1 12.371094 9.0332031 L 16.871094 11.761719 A 0.2500557 0.272755 0 0 1 16.871094 12.238281 L 12.371094 14.964844 A 0.2500557 0.272755 0 0 1 12 14.728516 L 12 9.2734375 A 0.2500557 0.272755 0 0 1 12.232422 9 z "
       transform="translate(0,1028.3622)"
       id="path5921" />
  </g>
</svg>
